src/logo-trade.svg

<svg xmlns="http://www.w3.org/2000/svg" class="dibsvg-svg dibsvg-logo-trade" viewBox="0 0 124 44">
    <polygon points="79.4003136 43.0832419 79.4003136 35.8335867 84.3411082 35.8335867 84.3411082 36.9539315 80.6644532 36.9539315 80.6644532 38.8346212 84.2654759 38.8346212 84.2654759 39.9534143 80.6644532 39.9534143 80.6644532 41.962897 84.3411082 41.962897 84.3411082 43.0832419" class="dibsvg-logo-trade-fill"/>
    <path d="M72.2931943,39.4646212 C72.2931943,38.0634143 71.4272819,36.9539315 69.8173947,36.9539315 L68.4019906,36.9539315 L68.4019906,41.962897 L69.8173947,41.962897 C71.3856069,41.962897 72.2931943,40.8332419 72.2931943,39.4646212 L72.2931943,39.4646212 Z M67.1363075,43.0832419 L67.1363075,35.8335867 L69.8173947,35.8335867 C72.067841,35.8335867 73.5912913,37.3341039 73.5912913,39.4646212 C73.5912913,41.5935867 72.067841,43.0832419 69.8173947,43.0832419 L67.1363075,43.0832419 Z" class="dibsvg-logo-trade-fill"/>
    <path d="M58.1393074,37.1173279 L56.8412105,40.5730175 L59.4358608,40.5730175 L58.1393074,37.1173279 Z M60.321839,43.0837072 L59.792413,41.6918107 L56.4846583,41.6918107 L55.9552323,43.0837072 L54.5166754,43.0837072 L57.3490272,35.834052 L58.928044,35.834052 L61.7603958,43.0837072 L60.321839,43.0837072 Z" class="dibsvg-logo-trade-fill"/>
    <path d="M48.1237408,38.1053108 C48.1237408,37.4101384 47.6051195,36.9539315 46.8920151,36.9539315 L45.1617337,36.9539315 L45.1617337,39.2566901 L46.8920151,39.2566901 C47.6051195,39.2566901 48.1237408,38.8004832 48.1237408,38.1053108 Z M48.0156947,43.0832419 L46.4150687,40.377035 L45.1617337,40.377035 L45.1617337,43.0832419 L43.8960506,43.0832419 L43.8960506,35.8335867 L47.0633454,35.8335867 C48.4910976,35.8335867 49.4202943,36.7692763 49.4202943,38.1053108 C49.4202943,39.3994488 48.5775345,40.0946212 47.7131656,40.2358281 L49.4743173,43.0832419 L48.0156947,43.0832419 Z" class="dibsvg-logo-trade-fill"/>
    <polygon points="32.605077 35.8337414 32.605077 36.9540862 34.789152 36.9540862 34.789152 43.0833966 36.0548351 43.0833966 36.0548351 36.9540862 38.2389102 36.9540862 38.2389102 35.8337414" class="dibsvg-logo-trade-fill"/>
    <path d="M119.348668,26.8801384 L120.83353,26.8801384 C121.370674,26.8801384 121.719508,27.0151384 121.932513,27.2292763 C122.113105,27.4108281 122.208803,27.642035 122.208803,27.9601384 L122.208803,27.9756557 C122.208803,28.4116901 121.980362,28.722035 121.608375,28.8973798 L122.319936,29.937035 L121.165386,29.937035 L120.581937,29.0634143 L120.564958,29.0634143 L120.367388,29.0634143 L120.367388,29.937035 L119.348668,29.937035 L119.348668,26.8801384 Z M120.80266,28.3325522 C121.048079,28.3325522 121.1978,28.2285867 121.1978,28.0392763 L121.1978,28.0237591 C121.1978,27.832897 121.038818,27.7366901 120.810377,27.7366901 L120.367388,27.7366901 L120.367388,28.3325522 L120.80266,28.3325522 Z M117.823674,28.507897 L117.823674,28.4908281 C117.823674,26.9266901 119.087814,25.5922074 120.691527,25.5922074 C122.29524,25.5922074 123.543944,26.9111729 123.543944,28.4753108 L123.543944,28.4908281 C123.543944,30.0565177 122.279805,31.3894488 120.676092,31.3894488 C119.072378,31.3894488 117.823674,30.072035 117.823674,28.507897 Z M123.212088,28.4908281 L123.212088,28.4753108 C123.212088,27.0694488 122.130084,25.9103108 120.691527,25.9103108 C119.246796,25.9103108 118.15553,27.0865177 118.15553,28.4908281 L118.15553,28.507897 C118.15553,29.9137591 119.239078,31.072897 120.676092,31.072897 C122.122366,31.072897 123.212088,29.8966901 123.212088,28.4908281 Z" class="dibsvg-logo-trade-fill"/>
    <path d="M117.049909,10.254966 L116.117626,16.7846212 L115.327346,16.7846212 C115.216212,15.1072074 114.702222,13.7851384 113.786917,12.819966 C112.870068,11.8563453 111.888392,11.3737591 110.840345,11.3737591 C110.196699,11.3737591 109.665729,11.5630694 109.247436,11.9432419 C108.8276,12.3234143 108.617682,12.7811729 108.617682,13.314966 C108.617682,13.7665177 108.708749,14.1885867 108.890884,14.5811729 C109.073019,14.9768626 109.478964,15.5106557 110.108718,16.1872074 C112.32212,18.579966 113.666522,20.2247936 114.145012,21.1216901 C114.621959,22.0201384 114.861204,22.9806557 114.861204,24.0032419 C114.861204,25.1111729 114.580284,26.1601384 114.018444,27.1485867 C113.456604,28.137035 112.618475,28.929966 111.502513,29.5258281 C110.386551,30.1216901 109.224283,30.4196212 108.017254,30.4196212 C107.203821,30.4196212 106.200536,30.262897 105.007398,29.9525522 C104.221748,29.7353108 103.632125,29.6282419 103.238529,29.6282419 C102.88815,29.6282419 102.613405,29.677897 102.417378,29.7803108 C102.219808,29.8811729 102.002172,30.0937591 101.764471,30.4196212 L100.975734,30.4196212 L102.016064,23.3856557 L102.696754,23.3856557 C103.187593,25.1003108 103.64756,26.3230694 104.075114,27.0539315 C104.502668,27.7832419 105.073769,28.3651384 105.788417,28.7965177 C106.503065,29.2294488 107.189929,29.4451384 107.849011,29.4451384 C108.620769,29.4451384 109.258241,29.2030694 109.762971,28.7173798 C110.2677,28.2316901 110.519293,27.6513453 110.519293,26.9747936 C110.519293,26.3137591 110.354137,25.672897 110.025368,25.0537591 C109.695056,24.4346212 108.935646,23.4710005 107.744052,22.1613453 C106.103294,20.3737591 105.022833,18.9927246 104.502668,18.0166901 C104.135311,17.3106557 103.953176,16.5037591 103.953176,15.5991039 C103.953176,14.0722074 104.504212,12.7997936 105.606282,11.7818626 C106.708352,10.7639315 108.256499,10.254966 110.250722,10.254966 C111.121265,10.254966 112.189378,10.4163453 113.453517,10.7375522 C114.084815,10.8989315 114.591089,10.9780694 114.96925,10.9780694 C115.517198,10.9780694 115.958644,10.7375522 116.296674,10.254966 L117.049909,10.254966 Z" class="dibsvg-logo-trade-fill"/>
    <path d="M93.6522139,0.55234531 L89.9277099,13.243897 C90.9850183,12.045966 91.8679095,11.2483798 92.5779268,10.8511384 C93.2864007,10.453897 94.0566151,10.2552763 94.8854832,10.2552763 C96.4922833,10.2552763 97.6931387,10.8635522 98.489593,12.0816557 C99.2860472,13.2997591 99.6842743,14.7025177 99.6842743,16.293035 C99.6842743,20.0947591 98.3398719,23.4868281 95.6526106,26.4707936 C93.2663349,29.1025177 90.5512904,30.4183798 87.5074769,30.4183798 C85.2446825,30.4183798 82.8522327,29.7402763 80.3301276,28.3840694 L86.840678,6.11062117 C87.1432071,5.05079359 87.3145374,4.31062117 87.3562123,3.88855221 C87.3562123,3.52700048 87.2049477,3.23993152 86.9024186,3.02889703 C86.4779517,2.72941428 85.8358491,2.6021729 84.9730237,2.64406945 L85.1520715,1.81389703 L92.3587476,0.55234531 L93.6522139,0.55234531 Z M85.4252738,28.5935522 C86.0550283,29.0171729 86.6245857,29.2282074 87.1324025,29.2282074 C87.8424198,29.2282074 88.438217,29.0807936 88.9213375,28.7844143 C89.6838344,28.3049315 90.4849192,27.4375177 91.3215048,26.1806212 C92.159634,24.9252763 92.8588467,23.4076901 93.4222301,21.630966 C93.9840699,19.8526901 94.2649898,18.0821729 94.2649898,16.3178626 C94.2649898,15.3170005 94.0550716,14.5535522 93.6383223,14.0321729 C93.2200295,13.5107936 92.7353655,13.2485522 92.1858738,13.2485522 C91.2705688,13.2485522 90.472571,13.7420005 89.793424,14.7257936 C89.3349998,15.3635522 88.8379876,16.7182074 88.3023876,18.7882074 L85.4252738,28.5935522 Z" class="dibsvg-logo-trade-fill"/>
    <path d="M78.995295,10.254966 L74.3138111,25.1484143 C74.0560439,26.0003108 73.9263886,26.5589315 73.9263886,26.8242763 C73.9263886,26.9856557 73.9881292,27.1346212 74.113154,27.2742763 C74.2381788,27.4123798 74.3709212,27.4822074 74.5098376,27.4822074 C74.7459956,27.4822074 74.9821535,27.372035 75.2183114,27.1532419 C75.8434354,26.6116901 76.5935842,25.6325522 77.4687577,24.2142763 L78.1864926,24.6534143 C76.0548971,28.497035 73.7890157,30.4196212 71.3888483,30.4196212 C70.4704563,30.4196212 69.7403733,30.1635867 69.1970556,29.6515177 C68.6521945,29.1410005 68.3805357,28.4923798 68.3805357,27.7072074 C68.3805357,27.1858281 68.5117346,26.5216901 68.7756758,25.717897 L71.9985371,15.6037591 C72.3072403,14.6308281 72.4615919,13.8968626 72.4615919,13.4034143 C72.4615919,13.0930694 72.3195885,12.8184143 72.037125,12.577897 C71.7531181,12.3373798 71.3656956,12.217897 70.873314,12.217897 C70.6495042,12.217897 70.3809324,12.2241039 70.0675987,12.2396212 L70.3546926,11.4094488 L77.6956546,10.254966 L78.995295,10.254966 Z M77.2866228,0.552034966 C78.1633399,0.552034966 78.9011405,0.8561729 79.5015682,1.46444876 C80.1004524,2.07272462 80.4014381,2.80824186 80.4014381,3.67255221 C80.4014381,4.53531083 80.0973654,5.27082807 79.4907636,5.87910393 C78.8826183,6.48893152 78.1479047,6.79151772 77.2866228,6.79151772 C76.4392326,6.79151772 75.7122365,6.48893152 75.1056348,5.87910393 C74.4974895,5.27082807 74.1934168,4.53531083 74.1934168,3.67255221 C74.1934168,2.80824186 74.4944024,2.07272462 75.0948302,1.46444876 C75.6937144,0.8561729 76.4253409,0.552034966 77.2866228,0.552034966 Z" class="dibsvg-logo-trade-fill"/>
    <path d="M69.8085967,0.551414276 L62.683727,24.1515867 C62.2299333,25.6288281 62.0045799,26.5210694 62.0045799,26.8298626 C62.0045799,26.9865867 62.058603,27.1215867 62.1712797,27.2348626 C62.2824128,27.3481384 62.4012635,27.4040005 62.5262883,27.4040005 C62.7639898,27.4040005 63.0356486,27.282966 63.3428083,27.0424488 C63.8583426,26.6467591 64.4850101,25.8972763 65.2243542,24.7924488 L65.97759,25.195897 C64.0018896,28.677966 61.8317062,30.4190005 59.4639527,30.4190005 C58.62428,30.4190005 57.9760033,30.1971039 57.5206661,29.7548626 C57.0653288,29.3126212 56.838432,28.7477936 56.838432,28.0588281 C56.838432,27.3977936 57.0205669,26.4574488 57.3848366,25.2346901 L58.0485485,23.0777936 C56.2904838,26.1874488 54.7654901,28.255897 53.4720237,29.2815867 C52.488804,30.0403798 51.5318241,30.4190005 50.6057145,30.4190005 C49.5499496,30.4190005 48.6608844,29.9891729 47.9369754,29.1310694 C47.2146099,28.272966 46.8518837,27.0207246 46.8518837,25.3727936 C46.8518837,23.2764143 47.319569,21.2064143 48.2533962,19.165897 C49.1887669,17.1238281 50.2676845,15.4215867 51.4932362,14.0560694 C52.7172444,12.6905522 53.885686,11.7160694 54.998561,11.1310694 C56.1083489,10.5476212 57.2027018,10.2543453 58.2800759,10.2543453 C58.8311111,10.2543453 59.3234927,10.3707246 59.7556772,10.6003798 C60.1878616,10.8315867 60.6786997,11.262966 61.2312784,11.8960694 L62.8766665,6.66055221 C63.2965028,5.34313841 63.506421,4.39813841 63.506421,3.82555221 C63.506421,3.48106945 63.362874,3.18779359 63.0773235,2.94572462 C62.7902296,2.70210393 62.4089811,2.58106945 61.9320347,2.58106945 C61.7082249,2.58106945 61.430392,2.60279359 61.0969926,2.64313841 L61.2760404,1.81451772 L68.4919776,0.551414276 L69.8085967,0.551414276 Z M60.368453,13.917966 C60.368453,13.0583108 60.1971227,12.4314143 59.8544622,12.0372763 C59.5118017,11.6431384 59.112031,11.4460694 58.6566938,11.4460694 C58.1998131,11.4460694 57.7074315,11.6788281 57.179549,12.1427936 C56.165459,13.0443453 55.1066071,14.8583108 53.9999061,17.5846901 C52.8947487,20.3110694 52.34217,22.6045177 52.34217,24.465035 C52.34217,25.1415867 52.4625642,25.6412419 52.7064398,25.9655522 C52.9487718,26.2898626 53.2188871,26.4512419 53.5198727,26.4512419 C54.0184283,26.4512419 54.5185275,26.2262419 55.0170832,25.7746901 C56.2302867,24.7040005 57.4249681,22.8621039 58.6026707,20.2474488 C59.7803734,17.6343453 60.368453,15.5240005 60.368453,13.917966 Z" class="dibsvg-logo-trade-fill"/>
    <path d="M46.8691711,5.09672462 L45.1080193,10.831897 L47.4618812,10.831897 L46.7256241,13.2494832 L44.3378049,13.2494832 L40.5222334,25.6679315 C40.2783579,26.4391384 40.1564201,27.0241384 40.1564201,27.4244832 C40.1564201,27.5594832 40.2181608,27.6758626 40.3447291,27.7751729 C40.4712974,27.8729315 40.6102138,27.9225867 40.7645654,27.9225867 C41.0022669,27.9225867 41.2476859,27.8232763 41.499279,27.6262074 C42.1429252,27.1327591 42.8915304,26.2715522 43.7435512,25.0441384 L44.4983305,25.5096557 C43.5290025,27.2025867 42.462433,28.443966 41.2986219,29.2337936 C40.1332674,30.0236212 38.989522,30.4193108 37.8673859,30.4193108 C36.9119496,30.4193108 36.1726054,30.1772419 35.6462665,29.6946557 C35.1199275,29.2105177 34.8575298,28.5975867 34.8575298,27.8558626 C34.8575298,27.0365522 35.0535563,25.986035 35.4456094,24.7012074 L39.0219359,13.2494832 L36.32387,13.2494832 L36.7220971,11.6900005 C38.4276822,11.0305177 39.9110011,10.2577591 41.1720536,9.37327634 C42.4331062,8.48879359 43.9519259,7.0627591 45.7300563,5.09672462 L46.8691711,5.09672462 Z" class="dibsvg-logo-trade-fill"/>
    <path d="M33.3110812,10.254966 L32.3787975,16.7846212 L31.5885173,16.7846212 C31.4773842,15.1072074 30.9633934,13.7851384 30.0480884,12.819966 C29.1312399,11.8563453 28.1495638,11.3737591 27.1015164,11.3737591 C26.4578703,11.3737591 25.9269008,11.5630694 25.5086079,11.9432419 C25.0887716,12.3234143 24.8788534,12.7811729 24.8788534,13.314966 C24.8788534,13.7665177 24.9699209,14.1885867 25.1520557,14.5811729 C25.3341906,14.9768626 25.7401353,15.5106557 26.3698898,16.1872074 C28.5832917,18.579966 29.9276942,20.2247936 30.4061841,21.1216901 C30.8831305,22.0201384 31.1223755,22.9806557 31.1223755,24.0032419 C31.1223755,25.1111729 30.8414556,26.1601384 30.2796158,27.1485867 C29.717776,28.137035 28.8796468,28.929966 27.7636848,29.5258281 C26.6477227,30.1216901 25.4854552,30.4196212 24.2784257,30.4196212 C23.4649928,30.4196212 22.4617074,30.262897 21.2685696,29.9525522 C20.4829199,29.7353108 19.8932968,29.6282419 19.4997003,29.6282419 C19.1493222,29.6282419 18.8745763,29.677897 18.6785498,29.7803108 C18.4809797,29.8811729 18.263344,30.0937591 18.0256425,30.4196212 L17.2369059,30.4196212 L18.2772356,23.3856557 L18.9579262,23.3856557 C19.4487642,25.1003108 19.908732,26.3230694 20.3362859,27.0539315 C20.7638399,27.7832419 21.3349408,28.3651384 22.0495887,28.7965177 C22.7642365,29.2294488 23.4511012,29.4451384 24.1101825,29.4451384 C24.8819405,29.4451384 25.5194125,29.2030694 26.0241423,28.7173798 C26.528872,28.2316901 26.7804651,27.6513453 26.7804651,26.9747936 C26.7804651,26.3137591 26.6153089,25.672897 26.28654,25.0537591 C25.9562276,24.4346212 25.1968177,23.4710005 24.0052234,22.1613453 C22.3644659,20.3737591 21.2840047,18.9927246 20.7638399,18.0166901 C20.3964831,17.3106557 20.2143482,16.5037591 20.2143482,15.5991039 C20.2143482,14.0722074 20.7653834,12.7997936 21.8674538,11.7818626 C22.9695242,10.7639315 24.5176707,10.254966 26.5118933,10.254966 C27.3824363,10.254966 28.4505494,10.4163453 29.714689,10.7375522 C30.345987,10.8989315 30.8522602,10.9780694 31.2304216,10.9780694 C31.7783698,10.9780694 32.2198154,10.7375522 32.5578454,10.254966 L33.3110812,10.254966 Z" class="dibsvg-logo-trade-fill"/>
    <path d="M18.3369697,0.623879793 L11.2136435,24.6492246 C10.8493737,25.9076729 10.6672389,26.7083626 10.6672389,27.0466384 C10.6672389,27.386466 10.7968942,27.7371557 11.0562049,28.0971557 C11.3155156,28.4587074 11.5948919,28.6930177 11.8974211,28.798535 C12.1984067,28.9040522 13.1059941,29.0002591 14.6186397,29.0840522 L14.3886559,29.8428453 L0,29.8428453 L0.231527395,29.0840522 C1.66082318,29.0561212 2.65639098,28.9366384 3.21668728,28.7240522 C3.77698357,28.511466 4.23695133,28.1654315 4.59350352,27.684397 C4.95159922,27.2033626 5.35445689,26.1916384 5.80207652,24.6492246 L9.99117886,10.3795694 C10.6518037,8.21181083 10.9960078,7.06353497 11.0253346,6.93629359 C11.113315,6.57008669 11.1580769,6.22560393 11.1580769,5.90129359 C11.1580769,5.27284531 10.9635939,4.77319014 10.5777149,4.40232807 C10.1902924,4.031466 9.6377137,3.8452591 8.91997878,3.8452591 C8.56805714,3.8452591 7.87193144,3.9026729 6.83160167,4.01439703 L6.65101031,3.221466 L17.446361,0.623879793 L18.3369697,0.623879793 Z" class="dibsvg-logo-trade-fill"/>
    <polygon points="90.7078029 40.6222074 116.947574 40.6222074 116.947574 38.2946212 90.7078029 38.2946212" class="dibsvg-logo-trade-bar-fill"/>
    <polygon points="0 40.6222074 26.2397715 40.6222074 26.2397715 38.2946212 0 38.2946212" class="dibsvg-logo-trade-bar-fill"/>
</svg>

<svg xmlns="http://www.w3.org/2000/svg" class="dibsvg-svg dibsvg-logo-trade" viewBox="0 0 124 44">
    <polygon points="79.4003136 43.0832419 79.4003136 35.8335867 84.3411082 35.8335867 84.3411082 36.9539315 80.6644532 36.9539315 80.6644532 38.8346212 84.2654759 38.8346212 84.2654759 39.9534143 80.6644532 39.9534143 80.6644532 41.962897 84.3411082 41.962897 84.3411082 43.0832419" class="dibsvg-logo-trade-fill"/>
    <path d="M72.293 39.465c0-1.402-.866-2.511-2.476-2.511h-1.415v5.009h1.415c1.569 0 2.476-1.13 2.476-2.498zm-5.157 3.618v-7.25h2.681c2.25 0 3.774 1.501 3.774 3.632 0 2.129-1.523 3.618-3.774 3.618h-2.68z" class="dibsvg-logo-trade-fill"/>
    <path d="M58.14 37.117l-1.299 3.456h2.595l-1.297-3.456zm2.182 5.967l-.53-1.392h-3.307l-.53 1.392h-1.438l2.832-7.25h1.579l2.832 7.25h-1.438z" class="dibsvg-logo-trade-fill"/>
    <path d="M48.124 38.105c0-.695-.519-1.151-1.232-1.151h-1.73v2.303h1.73c.713 0 1.232-.457 1.232-1.152zm-.108 4.978l-1.6-2.706h-1.254v2.706h-1.266v-7.25h3.167c1.428 0 2.357.936 2.357 2.272 0 1.294-.842 1.99-1.707 2.13l1.761 2.848h-1.458z" class="dibsvg-logo-trade-fill"/>
    <polygon points="32.605077 35.8337414 32.605077 36.9540862 34.789152 36.9540862 34.789152 43.0833966 36.0548351 43.0833966 36.0548351 36.9540862 38.2389102 36.9540862 38.2389102 35.8337414" class="dibsvg-logo-trade-fill"/>
    <path d="M119.349 26.88h1.485c.537 0 .886.135 1.099.35.18.18.276.412.276.73v.016c0 .436-.229.746-.6.921l.71 1.04h-1.154l-.583-.874h-.215v.874h-1.018V26.88zm1.454 1.453c.245 0 .395-.104.395-.294v-.015c0-.191-.16-.287-.388-.287h-.443v.596h.436zm-2.98.175v-.017c0-1.564 1.265-2.899 2.869-2.899 1.603 0 2.852 1.32 2.852 2.883v.016c0 1.566-1.264 2.898-2.868 2.898-1.604 0-2.852-1.317-2.852-2.881zm5.39-.017v-.016c0-1.406-1.083-2.565-2.521-2.565-1.445 0-2.536 1.177-2.536 2.58v.018c0 1.406 1.083 2.565 2.52 2.565 1.446 0 2.536-1.176 2.536-2.582z" class="dibsvg-logo-trade-fill"/>
    <path d="M117.05 10.255l-.932 6.53h-.79c-.112-1.678-.626-3-1.541-3.965-.917-.964-1.899-1.446-2.947-1.446-.643 0-1.174.19-1.593.57-.42.38-.63.837-.63 1.371 0 .452.092.874.274 1.266.182.396.588.93 1.218 1.606 2.213 2.393 3.558 4.038 4.036 4.935.477.898.716 1.859.716 2.881 0 1.108-.28 2.157-.843 3.146-.561.988-1.4 1.781-2.515 2.377-1.116.596-2.279.894-3.486.894-.813 0-1.816-.157-3.01-.467-.785-.218-1.375-.325-1.768-.325-.35 0-.626.05-.822.152-.197.101-.415.314-.653.64h-.788l1.04-7.034h.68c.492 1.714.952 2.937 1.38 3.668a4.89 4.89 0 0 0 1.712 1.743c.715.432 1.402.648 2.061.648.772 0 1.41-.242 1.914-.728.505-.485.756-1.066.756-1.742 0-.661-.165-1.302-.494-1.921-.33-.62-1.09-1.583-2.28-2.893-1.642-1.787-2.722-3.168-3.242-4.144-.368-.706-.55-1.513-.55-2.418 0-1.527.551-2.8 1.653-3.817 1.102-1.018 2.65-1.527 4.645-1.527.87 0 1.938.161 3.203.483.63.16 1.137.24 1.515.24.548 0 .99-.24 1.328-.723h.753z" class="dibsvg-logo-trade-fill"/>
    <path d="M93.652.552l-3.724 12.692c1.057-1.198 1.94-1.996 2.65-2.393a4.643 4.643 0 0 1 2.307-.596c1.607 0 2.808.609 3.605 1.827.796 1.218 1.194 2.62 1.194 4.211 0 3.802-1.344 7.194-4.031 10.178-2.387 2.632-5.102 3.947-8.146 3.947-2.262 0-4.655-.678-7.177-2.034l6.51-22.273c.303-1.06.475-1.8.516-2.222a.996.996 0 0 0-.454-.86c-.424-.3-1.066-.427-1.929-.385l.18-.83L92.358.552h1.293zm-8.227 28.042c.63.423 1.2.634 1.707.634.71 0 1.306-.147 1.79-.444.762-.48 1.563-1.346 2.4-2.603.838-1.256 1.537-2.773 2.1-4.55.562-1.778.843-3.549.843-5.313 0-1.001-.21-1.764-.627-2.286-.418-.521-.903-.783-1.452-.783-.915 0-1.713.493-2.393 1.477-.458.638-.955 1.992-1.49 4.062l-2.878 9.806z" class="dibsvg-logo-trade-fill"/>
    <path d="M78.995 10.255l-4.681 14.893c-.258.852-.388 1.41-.388 1.676 0 .162.062.31.187.45.125.138.258.208.397.208.236 0 .472-.11.708-.329.625-.541 1.376-1.52 2.25-2.939l.718.44c-2.131 3.843-4.397 5.766-6.797 5.766-.919 0-1.649-.256-2.192-.768-.545-.511-.816-1.16-.816-1.945 0-.521.13-1.185.395-1.99l3.223-10.113c.308-.973.463-1.707.463-2.2 0-.31-.142-.586-.425-.826-.284-.24-.671-.36-1.164-.36-.223 0-.492.006-.805.022l.287-.83 7.34-1.155h1.3zM77.287.552c.876 0 1.614.304 2.215.912.598.609.9 1.344.9 2.209a3.01 3.01 0 0 1-.911 2.206 2.997 2.997 0 0 1-2.204.913 2.965 2.965 0 0 1-2.181-.913 3.006 3.006 0 0 1-.913-2.206c0-.865.301-1.6.902-2.209a2.96 2.96 0 0 1 2.192-.912z" class="dibsvg-logo-trade-fill"/>
    <path d="M69.809.551l-7.125 23.6c-.454 1.478-.68 2.37-.68 2.679 0 .157.055.292.167.405.111.113.23.169.355.169.238 0 .51-.121.817-.362.515-.395 1.142-1.145 1.881-2.25l.754.404c-1.976 3.482-4.146 5.223-6.514 5.223-.84 0-1.488-.222-1.943-.664-.456-.442-.683-1.007-.683-1.696 0-.661.183-1.602.547-2.824l.664-2.157c-1.759 3.11-3.284 5.178-4.577 6.204-.983.758-1.94 1.137-2.866 1.137-1.056 0-1.945-.43-2.669-1.288-.722-.858-1.085-2.11-1.085-3.758 0-2.097.468-4.167 1.401-6.207.936-2.042 2.015-3.744 3.24-5.11 1.224-1.365 2.393-2.34 3.506-2.925 1.11-.583 2.204-.877 3.281-.877a3.11 3.11 0 0 1 1.476.346c.432.232.923.663 1.475 1.296l1.646-5.235c.42-1.318.63-2.263.63-2.835 0-.345-.144-.638-.43-.88-.287-.244-.668-.365-1.145-.365-.224 0-.502.022-.835.062l.179-.828L68.492.55h1.317zm-9.44 13.367c0-.86-.172-1.487-.515-1.88-.342-.395-.742-.592-1.197-.592-.457 0-.95.233-1.477.697-1.015.901-2.073 2.715-3.18 5.442-1.105 2.726-1.658 5.02-1.658 6.88 0 .677.12 1.176.364 1.5.243.325.513.486.814.486.498 0 .999-.225 1.497-.676 1.213-1.071 2.408-2.913 3.586-5.528 1.177-2.613 1.765-4.723 1.765-6.329z" class="dibsvg-logo-trade-fill"/>
    <path d="M46.87 5.097l-1.762 5.735h2.354l-.736 2.417h-2.388l-3.816 12.419c-.244.771-.366 1.356-.366 1.756 0 .135.062.252.189.351a.67.67 0 0 0 .42.148c.237 0 .483-.1.734-.297.644-.493 1.393-1.354 2.245-2.582l.754.466c-.969 1.693-2.036 2.934-3.2 3.724-1.165.79-2.308 1.185-3.43 1.185-.956 0-1.695-.242-2.222-.724-.526-.484-.788-1.097-.788-1.84 0-.818.196-1.869.588-3.154l3.576-11.452h-2.698l.398-1.559c1.706-.66 3.189-1.432 4.45-2.317 1.261-.884 2.78-2.31 4.558-4.276h1.14z" class="dibsvg-logo-trade-fill"/>
    <path d="M33.311 10.255l-.932 6.53h-.79c-.112-1.678-.626-3-1.54-3.965-.918-.964-1.9-1.446-2.947-1.446-.644 0-1.175.19-1.593.57-.42.38-.63.837-.63 1.371 0 .452.09.874.273 1.266.182.396.588.93 1.218 1.606 2.213 2.393 3.558 4.038 4.036 4.935.477.898.716 1.859.716 2.881a6.27 6.27 0 0 1-.842 3.146c-.562.988-1.4 1.781-2.516 2.377-1.116.596-2.279.894-3.486.894-.813 0-1.816-.157-3.01-.467-.785-.218-1.375-.325-1.768-.325-.35 0-.625.05-.821.152-.198.101-.416.314-.653.64h-.79l1.041-7.034h.68c.492 1.714.952 2.937 1.38 3.668a4.89 4.89 0 0 0 1.713 1.743c.714.432 1.401.648 2.06.648.772 0 1.41-.242 1.914-.728.505-.485.756-1.066.756-1.742 0-.661-.165-1.302-.493-1.921-.33-.62-1.09-1.583-2.282-2.893-1.64-1.787-2.721-3.168-3.241-4.144-.368-.706-.55-1.513-.55-2.418 0-1.527.551-2.8 1.653-3.817 1.103-1.018 2.65-1.527 4.645-1.527.87 0 1.939.161 3.203.483.631.16 1.137.24 1.515.24.548 0 .99-.24 1.328-.723h.753z" class="dibsvg-logo-trade-fill"/>
    <path d="M18.337.624l-7.123 24.025c-.365 1.259-.547 2.06-.547 2.398 0 .34.13.69.39 1.05.259.362.538.596.84.702.301.105 1.209.201 2.722.285l-.23.759H0l.232-.759c1.429-.028 2.424-.147 2.985-.36a3.007 3.007 0 0 0 1.377-1.04c.358-.48.76-1.492 1.208-3.035l4.19-14.27c.66-2.167 1.004-3.315 1.033-3.443.088-.366.133-.71.133-1.035 0-.628-.194-1.128-.58-1.499-.388-.37-.94-.557-1.658-.557-.352 0-1.048.058-2.088.17L6.65 3.22 17.446.624h.891z" class="dibsvg-logo-trade-fill"/>
    <polygon points="90.7078029 40.6222074 116.947574 40.6222074 116.947574 38.2946212 90.7078029 38.2946212" class="dibsvg-logo-trade-bar-fill"/>
    <polygon points="0 40.6222074 26.2397715 40.6222074 26.2397715 38.2946212 0 38.2946212" class="dibsvg-logo-trade-bar-fill"/>
</svg>
